src/assets/home/homesponsors/clarin.svg

<svg fill="none" height="82" viewBox="0 0 308 82" width="308" xmlns="http://www.w3.org/2000/svg"><g fill="#000"><path d="m9.14844 43.46c.0729-.8929.12757-1.7676.2187-2.6605.65606-7.1066 2.69726-13.7395 7.16236-19.4249 3.9366-5.0111 9.076-8.2364 15.1631-9.9857 2.9889-.8565 6.0506-1.2756 9.1489-1.42137 6.8707-.328 13.3041 1.22087 19.4276 4.31867 1.0753.5467 1.5856 1.0933 1.458 2.4418-.3645 4.1729-.5103 8.3822-.729 12.5551-.0364.7471-.1275 1.5124-.1093 2.2595 0 .6014-.2552.7289-.7837.6743-1.221-.1458-2.4603-.2734-3.6814-.4009-.4921-.0547-1.0024-.164-1.4944-.164-.565 0-.7655-.2369-.8566-.7654-.3645-2.132-.7654-4.264-1.1482-6.396-.729-4.0453-2.8248-6.2502-6.889-6.9608-4.6655-.8018-8.9848.0728-12.7209 3.0795-2.4968 2.0227-4.1917 4.6285-5.431 7.5622-1.3669 3.2618-2.0776 6.6694-2.4604 10.168-.3098 3.0067-.328 6.0316-.1822 9.0383.2005 4.3186.7654 8.5826 2.351 12.6644 1.2393 3.1889 2.9889 5.9769 5.8137 8.0178 2.2234 1.6035 4.7385 2.4053 7.454 2.6604 2.2599.2005 4.4833.1094 6.6885-.3644 2.3875-.5102 4.0641-1.9134 4.9389-4.2276.8566-2.2595 1.3669-4.6284 2.0777-6.9426.3098-1.0023.2916-1.0023 1.3122-1.0023h5.3398c.5103 0 .6561.1458.6197.6742-.2552 4.6285-.5103 9.2752-.729 13.9036-.0365.6196-.2552 1.0022-.8384 1.2938-3.6267 1.8951-7.5086 2.9702-11.5363 3.5715-1.6767.2552-3.3716.4556-5.0847.4738-.1094 0-.2187.0547-.3463.0729h-4.3011c-.1822-.0911-.3827-.0729-.5649-.0911-3.244-.1458-6.4152-.6742-9.5134-1.6582-5.0301-1.5854-9.3493-4.264-12.7027-8.3822-4.3375-5.3027-6.2147-11.5347-6.85256-18.2405-.0729-.8382-.1458-1.6947-.20048-2.5329 0-1.2755 0-2.5511 0-3.8266z"/><path d="m102.659 78.173c-.71-.1093-1.421-.1822-2.114-.3097-5.1208-.8747-8.5289-4.2823-9.3854-9.4209-.3827-2.3325-.4556-4.6649.0364-6.9792.8384-3.9906 3.2258-6.7239 6.8708-8.4368 2.5512-1.2027 5.2672-1.7858 8.0372-2.1685 2.898-.3826 5.814-.5649 8.73-.6013.237 0 .455-.0547.692-.0547 1.148-.0182 1.094.0729 1.075-1.2027 0-1.9315 0-3.8631-.036-5.8128-.036-1.1663-.31-2.3143-.875-3.3347-1.075-1.8951-2.806-2.7151-4.884-2.8791-3.609-.2916-7.035.492-10.388 1.7129-1.3671.492-2.7157 1.0386-4.0279 1.6764-.4192.2005-.6379.164-.8566-.2733-.7836-1.6582-1.6038-3.3165-2.4056-4.9565-.1641-.328-.1094-.5102.2004-.7106 4.7749-3.1343 9.9507-5.2298 15.6547-5.9587 3.882-.492 7.764-.4009 11.591.4191 5.231 1.1298 8.238 4.4462 9.423 9.5667.546 2.3506.765 4.7378.783 7.1431.037 7.4164 0 14.8329.019 22.2311 0 .7836 0 1.5853.127 2.3689.182 1.0751.747 1.7675 1.804 2.0409.748.2004 1.513.328 2.279.3644.492.0365.71.2187.692.7654-.036.9657-.036 1.9315 0 2.8973 0 .492-.182.6742-.62.8018-1.95.5102-3.918.9475-5.923 1.0569-.109 0-.218.0546-.328.0728h-2.788c-.747-.1093-1.494-.1822-2.223-.3279-2.406-.4738-4.411-1.5307-5.632-3.772-.364-.6561-.528-1.4032-.802-2.0956-.055.0182-.091.0364-.127.0547-.073.0911-.146.1822-.219.2733-2.278 2.9338-5.231 4.756-8.876 5.4849-.893.1822-1.804.2369-2.697.3826h-2.788zm13.942-17.548c0-1.3666 0-2.7515 0-4.1182 0-.4373-.145-.6196-.583-.656-.966-.0911-1.932.0365-2.897.0729-1.44.0547-2.844.2916-4.21.7836-2.133.7835-3.572 2.1866-3.973 4.5008-.164.9476-.128 1.8951-.037 2.8245.201 2.3506 1.604 4.1547 3.736 4.7378 1.659.4555 3.354.3826 4.957-.2369 1.914-.7471 2.971-2.1685 3.007-4.264 0-1.2209 0-2.4418 0-3.6627z"/><path d="m280.244 6.52342c1.257.164 2.533.27333 3.772.54666 5.231 1.148 9.55 3.80842 12.995 7.90842.291.3462.236.5831-.019.8929-2.715 3.444-6.05 6.1227-9.841 8.2911-3.718 2.1138-7.691 3.6262-11.81 4.7743-.455.1275-.638-.0001-.838-.4192-1.185-2.3506-3.135-3.6444-5.741-3.7173-3.7-.0911-6.415 2.624-6.707 5.9951-.31 3.5169 2.114 6.5418 5.668 7.1067 3.317.5284 6.561-1.7493 7.327-5.1205.018-.0911.054-.2004.054-.2915-.091-1.0387.492-1.4396 1.422-1.7129 2.041-.6196 4.028-1.3485 6.05-2.0227.183-.0546.42-.2551.584-.0729.127.1458 0 .3645-.055.5467-1.658 6.2502-6.47 10.496-12.885 11.2613-3.7.4556-6.925-.7471-9.732-3.0795-3.39-2.8245-4.556-6.56-4.101-10.8605.547-5.1204 2.698-9.4937 6.306-13.1382 3.736-3.75376 8.238-6.03154 13.505-6.74221.528-.07288 1.075-.12755 1.604-.20044h2.442z"/><path d="m302.203 31.1416c-.182 1.4942-.401 2.9884-.765 4.4462-2.296 8.8378-9.969 15.6347-19.027 16.8556-2.059.2733-4.119.328-6.178 0-1.093-.1823-1.349-.7289-.784-1.6765.748-1.2938 1.841-2.3324 2.862-3.4258 2.806-2.9884 5.558-6.0315 7.8-9.4937 1.95-3.0249 3.481-6.2503 4.228-9.8036.091-.4373.273-.656.747-.6924 1.713-.1276 3.445-.1094 5.158-.0183 2.005.1094 4.009.3645 5.978.8018v3.0249z"/><path d="m222.435 35.4058c.947-.9293 1.804-1.7311 2.715-2.4782 3.171-2.5329 6.707-4.2094 10.771-4.6649 2.934-.328 5.814-.1094 8.475 1.2937 3.134 1.64 4.72 4.4098 5.54 7.7263.456 1.8222.674 3.6991.674 5.576.018 8.0542 0 16.1084 0 24.1444 0 .9293.037 1.8587.219 2.7698.31 1.6947.966 2.296 2.679 2.5693.638.1094 1.258.2369 1.877.328.383.0547.547.2187.547.6014v3.3164c0 .4009-.201.5649-.565.5467-.128 0-.273 0-.401 0-7.199 0-14.398 0-21.596 0-.669 0-1.003-.3341-1.003-1.0023 0-.9293 0-1.8586 0-2.788 0-.4191.146-.6195.602-.6742.528-.0546 1.075-.1275 1.585-.2915.82-.2551 1.349-.8018 1.586-1.6218.164-.5831.273-1.1662.273-1.7676 0-8.3457 0-16.6733 0-25.0191 0-.8564-.127-1.6946-.383-2.5146-.565-1.8405-1.84-2.8974-3.699-3.1525-2.989-.4191-5.905.0182-8.694 1.148-.473.1822-.674.4738-.674 1.0022.018 9.3298 0 18.6596.037 27.9894 0 .5649.073 1.1115.145 1.6764.146 1.1845.821 1.9316 1.969 2.2231.565.1458 1.13.2551 1.695.3645.328.0546.473.2004.473.5284v3.4258c0 .3462-.182.492-.51.4738-.146 0-.31 0-.455 0-7.199 0-14.398 0-21.597 0-.632 0-.948-.322-.948-.9658 0-.8929.037-1.7858 0-2.6787-.036-.6013.201-.8382.766-.9111.619-.0911 1.221-.2369 1.822-.3644 1.294-.2551 2.041-1.0387 2.242-2.3325.091-.5466.164-1.1115.2-1.6764.146-3.7356.092-7.4711.092-11.2067 0-5.4484 0-10.9151 0-16.3635 0-1.0205-.055-2.0409-.219-3.0614-.237-1.4395-1.039-2.4235-2.442-2.8973-.802-.2733-1.64-.4373-2.479-.6013-.401-.0729-.565-.2551-.528-.656.091-1.1845.164-2.3507.255-3.5352.018-.2915.164-.4191.455-.4008h.401 15.911c1.13 0 1.512.3462 1.64 1.4577.182 1.4396.364 2.8792.583 4.4645z"/><path d="m84.2344 37.4646v24.0351c0 2.296.0547 4.6103.1093 6.9063 0 .492.1094 1.0022.1823 1.4942.2005 1.3302.9841 2.0956 2.2963 2.3507.7472.1457 1.4762.3097 2.2235.4191.3827.0546.5285.2186.5285.6013v3.3164c0 .4009-.1823.5649-.565.5467-.1458 0-.3098 0-.4556 0-7.5998 0-15.2178 0-22.8175 0-.7169 0-1.0753-.3644-1.0753-1.0933 0-.8747 0-1.7494 0-2.6058 0-.4556.1094-.7107.6196-.7653.729-.0729 1.458-.2187 2.1688-.3827 1.7678-.3827 2.3875-1.1298 2.5515-2.9338.1276-1.3484.1276-2.6969.1276-4.0635 0-15.2703 0-30.5405 0-45.8107 0-.7471 0-1.5124-.1094-2.2596-.2187-1.4942-.9477-2.5511-2.4239-3.0248-.8748-.2916-1.7678-.5467-2.679-.7654-.4921-.1275-.6379-.3462-.5468-.8564.164-.8929.3098-1.7858.3645-2.69691.0365-.60133.3281-.71066.8566-.71066h15.9649 1.9137c.7654 0 .7654 0 .7654.78355v20.20842z"/><path d="m157.226 36.4805c.747-1.1844 1.476-2.3324 2.351-3.3893 1.64-1.9862 3.535-3.6445 6.032-4.4462 2.661-.8565 5.267-.4556 7.891.2186.31.0729.365.2916.347.5831-.219 3.0614-.438 6.1227-.657 9.2023-.127 1.8404-.255 3.6626-.364 5.5031-.055 1.0022-.601 1.3302-1.549.8564-.346-.164-.674-.3827-1.002-.5831-2.534-1.4031-5.103-2.6969-7.965-3.28-1.385-.2733-2.77-.3098-4.137.0729-.419.1275-.583.328-.583.7835 0 8.3823 0 16.7645.018 25.1285 0 .8382.11 1.6947.237 2.5329.237 1.4942.911 2.1866 2.388 2.46 1.202.2004 2.405.3462 3.626.4738.511.0546.766.2186.729.7835-.036 1.0387-.036 2.0956 0 3.1342 0 .492-.182.6743-.656.6378-.31-.0182-.619 0-.929 0-7.91 0-15.838 0-23.747 0-.644 0-.972-.3158-.984-.9475 0-.9476 0-1.8952 0-2.8427 0-.4738.164-.7107.638-.7653.583-.0729 1.148-.2005 1.713-.328 1.95-.4192 2.551-1.0934 2.715-3.0432.073-.8928.128-1.7675.128-2.6604 0-8.8013 0-17.6027 0-26.404 0-.82-.073-1.6218-.201-2.4236-.291-1.8404-1.403-2.8608-3.171-3.2617-.565-.1276-1.13-.2551-1.713-.3463-.437-.0728-.638-.2551-.601-.7288.091-1.1298.164-2.2778.237-3.4076.018-.4373.291-.4738.637-.4738h5.231 10.516c1.13 0 1.512.328 1.713 1.4214.31 1.7311.601 3.4622.893 5.1933.018.1093 0 .2369.2.3644z"/><path d="m195.715 48.9081v16.6734c0 1.3302.037 2.6604.237 3.9906.237 1.5854.911 2.3143 2.479 2.6787.729.164 1.476.3098 2.223.4191.365.0547.547.2004.529.6013v3.3165c0 .4009-.164.5649-.547.5467-.128 0-.273 0-.401 0-7.891 0-15.801 0-23.692 0-.656 0-.984-.328-.984-.984 0-.9294 0-1.8587 0-2.788 0-.4192.127-.6378.565-.6925.71-.0911 1.421-.2187 2.114-.3462 2.187-.4374 2.934-1.2938 3.153-3.5351.109-1.1845.127-2.3507.127-3.5351 0-8.2183 0-16.4547 0-24.6729 0-1.0569 0-2.132-.255-3.1707-.292-1.2391-1.002-2.1138-2.169-2.6058-.747-.3097-1.549-.5102-2.333-.6924-.437-.0911-.619-.2916-.583-.7471.091-1.1116.182-2.2414.237-3.3529.018-.4556.292-.5102.656-.5102h7.035 10.097c.291 0 .565 0 .856.1275.492.2187.711.5467.693 1.1116-.018 6.0498 0 12.1178 0 18.1675z"/><path d="m200.783 13.1744c0 .4009-.146.7289-.547.984-5.631 3.4804-11.245 6.9791-16.858 10.4778-.328.2004-.547.1822-.82-.0729-1.203-1.0934-2.424-2.1685-3.645-3.2436-.328-.2733-.255-.492 0-.7653 2.989-3.5351 5.959-7.052 8.948-10.58712.839-.984 1.677-1.968 2.497-2.97023.273-.328.474-.34622.82-.12755 3.062 1.89511 6.124 3.772 9.186 5.6671.236.1458.455.3098.401.656z"/></g></svg>

<svg width="308" height="82" viewBox="0 0 308 82" fill="none" xmlns="http://www.w3.org/2000/svg">
<path d="M9.14844 43.46C9.22134 42.5671 9.27601 41.6924 9.36714 40.7995C10.0232 33.6929 12.0644 27.06 16.5295 21.3746C20.4661 16.3635 25.6055 13.1382 31.6926 11.3889C34.6815 10.5324 37.7432 10.1133 40.8415 9.96753C47.7122 9.63953 54.1456 11.1884 60.2691 14.2862C61.3444 14.8329 61.8547 15.3795 61.7271 16.728C61.3626 20.9009 61.2168 25.1102 60.9981 29.2831C60.9617 30.0302 60.8706 30.7955 60.8888 31.5426C60.8888 32.144 60.6336 32.2715 60.1051 32.2169C58.8841 32.0711 57.6448 31.9435 56.4237 31.816C55.9316 31.7613 55.4213 31.652 54.9293 31.652C54.3643 31.652 54.1638 31.4151 54.0727 30.8866C53.7082 28.7546 53.3073 26.6226 52.9245 24.4906C52.1955 20.4453 50.0997 18.2404 46.0355 17.5298C41.37 16.728 37.0507 17.6026 33.3146 20.6093C30.8178 22.632 29.1229 25.2378 27.8836 28.1715C26.5167 31.4333 25.806 34.8409 25.4232 38.3395C25.1134 41.3462 25.0952 44.3711 25.241 47.3778C25.4415 51.6964 26.0064 55.9604 27.592 60.0422C28.8313 63.2311 30.5809 66.0191 33.4057 68.06C35.6291 69.6635 38.1442 70.4653 40.8597 70.7204C43.1196 70.9209 45.343 70.8298 47.5482 70.356C49.9357 69.8458 51.6123 68.4426 52.4871 66.1284C53.3437 63.8689 53.854 61.5 54.5648 59.1858C54.8746 58.1835 54.8564 58.1835 55.877 58.1835C57.663 58.1835 59.4308 58.1835 61.2168 58.1835C61.7271 58.1835 61.8729 58.3293 61.8365 58.8577C61.5813 63.4862 61.3262 68.1329 61.1075 72.7613C61.071 73.3809 60.8523 73.7635 60.2691 74.0551C56.6424 75.9502 52.7605 77.0253 48.7328 77.6266C47.0561 77.8818 45.3612 78.0822 43.6481 78.1004C43.5387 78.1004 43.4294 78.1551 43.3018 78.1733H39.0007C38.8185 78.0822 38.618 78.1004 38.4358 78.0822C35.1918 77.9364 32.0206 77.408 28.9224 76.424C23.8923 74.8386 19.5731 72.16 16.2197 68.0418C11.8822 62.7391 10.005 56.5071 9.36714 49.8013C9.29424 48.9631 9.22134 48.1066 9.16666 47.2684C9.16666 45.9929 9.16666 44.7173 9.16666 43.4418L9.14844 43.46Z" fill="black"/>
<path d="M102.659 78.173C101.949 78.0637 101.238 77.9908 100.545 77.8633C95.4242 76.9886 92.0161 73.581 91.1596 68.4424C90.7769 66.1099 90.704 63.7775 91.196 61.4632C92.0344 57.4726 94.4218 54.7393 98.0668 53.0264C100.618 51.8237 103.334 51.2406 106.104 50.8579C109.002 50.4753 111.918 50.293 114.834 50.2566C115.071 50.2566 115.289 50.2019 115.526 50.2019C116.674 50.1837 116.62 50.2748 116.601 48.9992C116.601 47.0677 116.601 45.1361 116.565 43.1864C116.529 42.0201 116.255 40.8721 115.69 39.8517C114.615 37.9566 112.884 37.1366 110.806 36.9726C107.197 36.681 103.771 37.4646 100.418 38.6855C99.0509 39.1775 97.7023 39.7241 96.3901 40.3619C95.9709 40.5624 95.7522 40.5259 95.5335 40.0886C94.7499 38.4304 93.9297 36.7721 93.1279 35.1321C92.9638 34.8041 93.0185 34.6219 93.3283 34.4215C98.1032 31.2872 103.279 29.1917 108.983 28.4628C112.865 27.9708 116.747 28.0619 120.574 28.8819C125.805 30.0117 128.812 33.3281 129.997 38.4486C130.543 40.7992 130.762 43.1864 130.78 45.5917C130.817 53.0081 130.78 60.4246 130.799 67.8228C130.799 68.6064 130.799 69.4081 130.926 70.1917C131.108 71.2668 131.673 71.9592 132.73 72.2326C133.478 72.433 134.243 72.5606 135.009 72.597C135.501 72.6335 135.719 72.8157 135.701 73.3624C135.665 74.3281 135.665 75.2939 135.701 76.2597C135.701 76.7517 135.519 76.9339 135.081 77.0615C133.131 77.5717 131.163 78.009 129.158 78.1184C129.049 78.1184 128.94 78.173 128.83 78.1912H126.042C125.295 78.0819 124.548 78.009 123.819 77.8633C121.413 77.3895 119.408 76.3326 118.187 74.0913C117.823 73.4352 117.659 72.6881 117.385 71.9957C117.33 72.0139 117.294 72.0321 117.258 72.0504C117.185 72.1415 117.112 72.2326 117.039 72.3237C114.761 75.2575 111.808 77.0797 108.163 77.8086C107.27 77.9908 106.359 78.0455 105.466 78.1912H102.678L102.659 78.173ZM116.601 60.625C116.601 59.2584 116.601 57.8735 116.601 56.5068C116.601 56.0695 116.456 55.8872 116.018 55.8508C115.052 55.7597 114.086 55.8873 113.121 55.9237C111.681 55.9784 110.277 56.2153 108.911 56.7073C106.778 57.4908 105.339 58.8939 104.938 61.2081C104.774 62.1557 104.81 63.1032 104.901 64.0326C105.102 66.3832 106.505 68.1873 108.637 68.7704C110.296 69.2259 111.991 69.153 113.594 68.5335C115.508 67.7864 116.565 66.365 116.601 64.2695C116.601 63.0486 116.601 61.8277 116.601 60.6068V60.625Z" fill="black"/>
<path d="M280.244 6.52342C281.501 6.68742 282.777 6.79675 284.016 7.07008C289.247 8.21808 293.566 10.8785 297.011 14.9785C297.302 15.3247 297.247 15.5616 296.992 15.8714C294.277 19.3154 290.942 21.9941 287.151 24.1625C283.433 26.2763 279.46 27.7887 275.341 28.9368C274.886 29.0643 274.703 28.9367 274.503 28.5176C273.318 26.167 271.368 24.8732 268.762 24.8003C265.062 24.7092 262.347 27.4243 262.055 30.7954C261.745 34.3123 264.169 37.3372 267.723 37.9021C271.04 38.4305 274.284 36.1528 275.05 32.7816C275.068 32.6905 275.104 32.5812 275.104 32.4901C275.013 31.4514 275.596 31.0505 276.526 30.7772C278.567 30.1576 280.554 29.4287 282.576 28.7545C282.759 28.6999 282.996 28.4994 283.16 28.6816C283.287 28.8274 283.16 29.0461 283.105 29.2283C281.447 35.4785 276.635 39.7243 270.22 40.4896C266.52 40.9452 263.295 39.7425 260.488 37.4101C257.098 34.5856 255.932 30.8501 256.387 26.5496C256.934 21.4292 259.085 17.0559 262.693 13.4114C266.429 9.65764 270.931 7.37986 276.198 6.66919C276.726 6.59631 277.273 6.54164 277.802 6.46875H280.244V6.52342Z" fill="black"/>
<path d="M302.203 31.1416C302.021 32.6358 301.802 34.13 301.438 35.5878C299.142 44.4256 291.469 51.2225 282.411 52.4434C280.352 52.7167 278.292 52.7714 276.233 52.4434C275.14 52.2611 274.884 51.7145 275.449 50.7669C276.197 49.4731 277.29 48.4345 278.311 47.3411C281.117 44.3527 283.869 41.3096 286.111 37.8474C288.061 34.8225 289.592 31.5971 290.339 28.0438C290.43 27.6065 290.612 27.3878 291.086 27.3514C292.799 27.2238 294.531 27.242 296.244 27.3331C298.249 27.4425 300.253 27.6976 302.222 28.1349V31.1598L302.203 31.1416Z" fill="black"/>
<path d="M222.435 35.4058C223.382 34.4765 224.239 33.6747 225.15 32.9276C228.321 30.3947 231.857 28.7182 235.921 28.2627C238.855 27.9347 241.735 28.1533 244.396 29.5564C247.53 31.1964 249.116 33.9662 249.936 37.2827C250.392 39.1049 250.61 40.9818 250.61 42.8587C250.628 50.9129 250.61 58.9671 250.61 67.0031C250.61 67.9324 250.647 68.8618 250.829 69.7729C251.139 71.4676 251.795 72.0689 253.508 72.3422C254.146 72.4516 254.766 72.5791 255.385 72.6702C255.768 72.7249 255.932 72.8889 255.932 73.2716C255.932 74.3831 255.932 75.4764 255.932 76.588C255.932 76.9889 255.731 77.1529 255.367 77.1347C255.239 77.1347 255.094 77.1347 254.966 77.1347C247.767 77.1347 240.568 77.1347 233.37 77.1347C232.701 77.1347 232.367 76.8006 232.367 76.1324C232.367 75.2031 232.367 74.2738 232.367 73.3444C232.367 72.9253 232.513 72.7249 232.969 72.6702C233.497 72.6156 234.044 72.5427 234.554 72.3787C235.374 72.1236 235.903 71.5769 236.14 70.7569C236.304 70.1738 236.413 69.5907 236.413 68.9893C236.413 60.6436 236.413 52.316 236.413 43.9702C236.413 43.1138 236.286 42.2756 236.03 41.4556C235.465 39.6151 234.19 38.5582 232.331 38.3031C229.342 37.884 226.426 38.3213 223.637 39.4511C223.164 39.6333 222.963 39.9249 222.963 40.4533C222.981 49.7831 222.963 59.1129 223 68.4427C223 69.0076 223.073 69.5542 223.145 70.1191C223.291 71.3036 223.966 72.0507 225.114 72.3422C225.679 72.488 226.244 72.5973 226.809 72.7067C227.137 72.7613 227.282 72.9071 227.282 73.2351C227.282 74.3831 227.282 75.5129 227.282 76.6609C227.282 77.0071 227.1 77.1529 226.772 77.1347C226.626 77.1347 226.462 77.1347 226.317 77.1347C219.118 77.1347 211.919 77.1347 204.72 77.1347C204.088 77.1347 203.772 76.8127 203.772 76.1689C203.772 75.276 203.809 74.3831 203.772 73.4902C203.736 72.8889 203.973 72.652 204.538 72.5791C205.157 72.488 205.759 72.3422 206.36 72.2147C207.654 71.9596 208.401 71.176 208.602 69.8822C208.693 69.3356 208.766 68.7707 208.802 68.2058C208.948 64.4702 208.894 60.7347 208.894 56.9991C208.894 51.5507 208.894 46.084 208.894 40.6356C208.894 39.6151 208.839 38.5947 208.675 37.5742C208.438 36.1347 207.636 35.1507 206.233 34.6769C205.431 34.4036 204.593 34.2396 203.754 34.0756C203.353 34.0027 203.189 33.8205 203.226 33.4196C203.317 32.2351 203.39 31.0689 203.481 29.8844C203.499 29.5929 203.645 29.4653 203.936 29.4836C204.064 29.4836 204.21 29.4836 204.337 29.4836C209.641 29.4836 214.944 29.4836 220.248 29.4836C221.378 29.4836 221.76 29.8298 221.888 30.9413C222.07 32.3809 222.252 33.8205 222.471 35.4058H222.435Z" fill="black"/>
<path d="M84.2344 37.4646C84.2344 45.4824 84.2344 53.482 84.2344 61.4997C84.2344 63.7957 84.2891 66.11 84.3437 68.406C84.3437 68.898 84.4531 69.4082 84.526 69.9002C84.7265 71.2304 85.5101 71.9958 86.8223 72.2509C87.5695 72.3966 88.2985 72.5606 89.0458 72.67C89.4285 72.7246 89.5743 72.8886 89.5743 73.2713C89.5743 74.3829 89.5743 75.4762 89.5743 76.5877C89.5743 76.9886 89.392 77.1526 89.0093 77.1344C88.8635 77.1344 88.6995 77.1344 88.5537 77.1344C80.9539 77.1344 73.3359 77.1344 65.7362 77.1344C65.0193 77.1344 64.6609 76.77 64.6609 76.0411C64.6609 75.1664 64.6609 74.2917 64.6609 73.4353C64.6609 72.9797 64.7703 72.7246 65.2805 72.67C66.0095 72.5971 66.7385 72.4513 67.4493 72.2873C69.2171 71.9046 69.8368 71.1575 70.0008 69.3535C70.1284 68.0051 70.1284 66.6566 70.1284 65.29C70.1284 50.0197 70.1284 34.7495 70.1284 19.4793C70.1284 18.7322 70.1284 17.9669 70.019 17.2197C69.8003 15.7255 69.0713 14.6686 67.5951 14.1949C66.7203 13.9033 65.8273 13.6482 64.9161 13.4295C64.424 13.302 64.2782 13.0833 64.3693 12.5731C64.5333 11.6802 64.6791 10.7873 64.7338 9.87619C64.7703 9.27486 65.0619 9.16553 65.5904 9.16553C70.912 9.16553 76.2337 9.16553 81.5553 9.16553C82.1932 9.16553 82.8311 9.16553 83.469 9.16553C84.2344 9.16553 84.2344 9.16553 84.2344 9.94908C84.2344 16.6913 84.2344 23.4153 84.2344 30.1575C84.2344 32.5993 84.2344 35.0411 84.2344 37.4646Z" fill="black"/>
<path d="M157.226 36.4805C157.973 35.2961 158.702 34.1481 159.577 33.0912C161.217 31.105 163.112 29.4467 165.609 28.645C168.27 27.7885 170.876 28.1894 173.5 28.8636C173.81 28.9365 173.865 29.1552 173.847 29.4467C173.628 32.5081 173.409 35.5694 173.19 38.649C173.063 40.4894 172.935 42.3116 172.826 44.1521C172.771 45.1543 172.225 45.4823 171.277 45.0085C170.931 44.8445 170.603 44.6258 170.275 44.4254C167.741 43.0223 165.172 41.7285 162.31 41.1454C160.925 40.8721 159.54 40.8356 158.173 41.2183C157.754 41.3458 157.59 41.5463 157.59 42.0018C157.59 50.3841 157.59 58.7663 157.608 67.1303C157.608 67.9685 157.718 68.825 157.845 69.6632C158.082 71.1574 158.756 71.8498 160.233 72.1232C161.435 72.3236 162.638 72.4694 163.859 72.597C164.37 72.6516 164.625 72.8156 164.588 73.3805C164.552 74.4192 164.552 75.4761 164.588 76.5147C164.588 77.0067 164.406 77.189 163.932 77.1525C163.622 77.1343 163.313 77.1525 163.003 77.1525C155.093 77.1525 147.165 77.1525 139.256 77.1525C138.612 77.1525 138.284 76.8367 138.272 76.205C138.272 75.2574 138.272 74.3098 138.272 73.3623C138.272 72.8885 138.436 72.6516 138.91 72.597C139.493 72.5241 140.058 72.3965 140.623 72.269C142.573 71.8498 143.174 71.1756 143.338 69.2258C143.411 68.333 143.466 67.4583 143.466 66.5654C143.466 57.7641 143.466 48.9627 143.466 40.1614C143.466 39.3414 143.393 38.5396 143.265 37.7378C142.974 35.8974 141.862 34.877 140.094 34.4761C139.529 34.3485 138.964 34.221 138.381 34.1298C137.944 34.057 137.743 33.8747 137.78 33.401C137.871 32.2712 137.944 31.1232 138.017 29.9934C138.035 29.5561 138.308 29.5196 138.654 29.5196C140.404 29.5196 142.135 29.5196 143.885 29.5196C147.384 29.5196 150.883 29.5196 154.401 29.5196C155.531 29.5196 155.913 29.8476 156.114 30.941C156.424 32.6721 156.715 34.4032 157.007 36.1343C157.025 36.2436 157.007 36.3712 157.207 36.4987L157.226 36.4805Z" fill="black"/>
<path d="M195.715 48.9081C195.715 54.4659 195.715 60.0237 195.715 65.5815C195.715 66.9117 195.752 68.2419 195.952 69.5721C196.189 71.1575 196.863 71.8864 198.431 72.2508C199.16 72.4148 199.907 72.5606 200.654 72.6699C201.019 72.7246 201.201 72.8703 201.183 73.2712C201.183 74.3828 201.183 75.4761 201.183 76.5877C201.183 76.9886 201.019 77.1526 200.636 77.1344C200.508 77.1344 200.363 77.1344 200.235 77.1344C192.344 77.1344 184.434 77.1344 176.543 77.1344C175.887 77.1344 175.559 76.8064 175.559 76.1504C175.559 75.221 175.559 74.2917 175.559 73.3624C175.559 72.9432 175.686 72.7246 176.124 72.6699C176.834 72.5788 177.545 72.4512 178.238 72.3237C180.425 71.8863 181.172 71.0299 181.391 68.7886C181.5 67.6041 181.518 66.4379 181.518 65.2535C181.518 57.0352 181.518 48.7988 181.518 40.5806C181.518 39.5237 181.518 38.4486 181.263 37.4099C180.971 36.1708 180.261 35.2961 179.094 34.8041C178.347 34.4944 177.545 34.2939 176.761 34.1117C176.324 34.0206 176.142 33.8201 176.178 33.3646C176.269 32.253 176.36 31.1232 176.415 30.0117C176.433 29.5561 176.707 29.5015 177.071 29.5015C179.422 29.5015 181.755 29.5015 184.106 29.5015C187.478 29.5015 190.849 29.5015 194.203 29.5015C194.494 29.5015 194.768 29.5015 195.059 29.629C195.551 29.8477 195.77 30.1757 195.752 30.7406C195.734 36.7904 195.752 42.8584 195.752 48.9081H195.715Z" fill="black"/>
<path d="M200.783 13.1744C200.783 13.5753 200.637 13.9033 200.236 14.1584C194.605 17.6388 188.991 21.1375 183.378 24.6362C183.05 24.8366 182.831 24.8184 182.558 24.5633C181.355 23.4699 180.134 22.3948 178.913 21.3197C178.585 21.0464 178.658 20.8277 178.913 20.5544C181.902 17.0193 184.872 13.5024 187.861 9.96728C188.7 8.98328 189.538 7.99928 190.358 6.99705C190.631 6.66905 190.832 6.65083 191.178 6.8695C194.24 8.76461 197.302 10.6415 200.364 12.5366C200.6 12.6824 200.819 12.8464 200.765 13.1926L200.783 13.1744Z" fill="black"/>
</svg>
